icons/rw.svg

<?xml version="1.0" ?>
<svg xmlns="http://www.w3.org/2000/svg" xmlns:ev="http://www.w3.org/2001/xml-events" xmlns:xlink="http://www.w3.org/1999/xlink" baseProfile="full" height="513px" version="1.1" viewBox="-1024.1777223424126 -127.458074638438 12286.481620562892 10502.042683143285" width="600px">
	<defs/>
	<path d="M 2199.0,9455.0 L 2155.0,9411.0 L 1690.0,9275.0 C 1434.0,9200.0 1215.0,9136.0 1202.0,9132.0 C 1180.0,9125.0 1195.0,9105.0 1407.0,8864.0 C 1532.0,8721.0 1641.0,8597.0 1648.0,8588.0 C 1659.0,8574.0 1651.0,8566.0 1582.0,8524.0 C 1503.0,8477.0 1503.0,8477.0 1465.0,8391.0 C 1444.0,8344.0 1423.0,8301.0 1418.0,8295.0 C 1413.0,8290.0 1330.0,8269.0 1234.0,8249.0 C 1138.0,8229.0 1058.0,8211.0 1056.0,8209.0 C 1054.0,8207.0 1024.0,8162.0 989.0,8109.0 C 944.0,8041.0 897.0,7988.0 829.0,7927.0 L 732.0,7840.0 L 461.0,7883.0 L 189.0,7927.0 L 175.0,7900.0 C 157.0,7865.0 121.0,7673.0 111.0,7553.0 C 102.0,7455.0 63.0,7338.0 16.0,7265.0 C -1.0,7240.0 0.0,7238.0 19.0,7207.0 L 40.0,7175.0 L 40.0,7201.0 C 40.0,7237.0 62.0,7255.0 88.0,7241.0 C 112.0,7228.0 187.0,7224.0 216.0,7234.0 C 261.0,7250.0 415.0,7065.0 444.0,6961.0 C 458.0,6911.0 471.0,6889.0 520.0,6840.0 C 553.0,6806.0 583.0,6767.0 586.0,6752.0 C 598.0,6695.0 614.0,6668.0 662.0,6625.0 C 694.0,6596.0 715.0,6568.0 722.0,6544.0 C 727.0,6523.0 750.0,6485.0 773.0,6459.0 C 796.0,6432.0 842.0,6355.0 875.0,6288.0 C 934.0,6167.0 941.0,6159.0 1016.0,6114.0 C 1033.0,6104.0 1034.0,6099.0 1022.0,6066.0 C 1000.0,6007.0 1030.0,5957.0 1087.0,5955.0 C 1103.0,5955.0 1176.0,5867.0 1201.0,5818.0 C 1211.0,5798.0 1220.0,5770.0 1220.0,5757.0 C 1220.0,5743.0 1237.0,5717.0 1265.0,5690.0 C 1309.0,5647.0 1310.0,5644.0 1310.0,5585.0 C 1310.0,5506.0 1302.0,5480.0 1279.0,5480.0 C 1254.0,5480.0 1255.0,5474.0 1289.0,5431.0 C 1337.0,5370.0 1400.0,5264.0 1400.0,5244.0 C 1401.0,5198.0 1457.0,5165.0 1502.0,5184.0 C 1513.0,5189.0 1525.0,5185.0 1537.0,5170.0 C 1557.0,5146.0 1661.0,5090.0 1685.0,5090.0 C 1693.0,5090.0 1717.0,5075.0 1737.0,5057.0 C 1758.0,5038.0 1796.0,5009.0 1822.0,4991.0 C 1851.0,4972.0 1872.0,4949.0 1875.0,4935.0 C 1878.0,4921.0 1882.0,4899.0 1885.0,4887.0 C 1887.0,4874.0 1914.0,4830.0 1944.0,4789.0 C 1985.0,4732.0 2001.0,4700.0 2013.0,4647.0 C 2022.0,4604.0 2038.0,4567.0 2057.0,4545.0 C 2120.0,4468.0 2132.0,4450.0 2118.0,4450.0 C 2110.0,4450.0 2098.0,4456.0 2091.0,4463.0 C 2075.0,4477.0 2075.0,4479.0 2124.0,4375.0 C 2145.0,4331.0 2168.0,4287.0 2177.0,4278.0 C 2185.0,4269.0 2196.0,4244.0 2200.0,4223.0 C 2208.0,4192.0 2206.0,4182.0 2189.0,4164.0 C 2168.0,4142.0 2140.0,4029.0 2140.0,3965.0 C 2140.0,3941.0 2148.0,3913.0 2161.0,3895.0 C 2172.0,3879.0 2193.0,3840.0 2206.0,3810.0 C 2233.0,3752.0 2233.0,3690.0 2208.0,3635.0 C 2199.0,3615.0 2205.0,3597.0 2251.0,3510.0 C 2295.0,3426.0 2311.0,3405.0 2338.0,3393.0 C 2365.0,3382.0 2369.0,3376.0 2360.0,3365.0 C 2352.0,3355.0 2354.0,3349.0 2369.0,3338.0 C 2380.0,3330.0 2406.0,3292.0 2427.0,3253.0 C 2454.0,3204.0 2482.0,3168.0 2517.0,3141.0 C 2563.0,3104.0 2574.0,3100.0 2623.0,3100.0 C 2674.0,3100.0 2682.0,3097.0 2726.0,3056.0 C 2753.0,3032.0 2802.0,2999.0 2835.0,2982.0 C 2885.0,2957.0 2899.0,2944.0 2917.0,2906.0 C 2937.0,2866.0 2944.0,2860.0 2970.0,2860.0 C 2986.0,2860.0 3000.0,2859.0 3000.0,2858.0 C 3000.0,2856.0 3007.0,2837.0 3014.0,2815.0 C 3026.0,2781.0 3026.0,2774.0 3013.0,2765.0 C 3001.0,2756.0 3007.0,2746.0 3048.0,2708.0 C 3088.0,2670.0 3099.0,2651.0 3114.0,2597.0 C 3132.0,2530.0 3150.0,2505.0 3185.0,2498.0 C 3205.0,2494.0 3206.0,2490.0 3193.0,2430.0 C 3190.0,2412.0 3195.0,2399.0 3209.0,2386.0 C 3222.0,2374.0 3230.0,2355.0 3230.0,2334.0 C 3230.0,2288.0 3245.0,2253.0 3268.0,2246.0 C 3293.0,2238.0 3336.0,2174.0 3343.0,2134.0 C 3346.0,2116.0 3363.0,2081.0 3380.0,2054.0 C 3396.0,2028.0 3410.0,1999.0 3410.0,1989.0 C 3410.0,1980.0 3417.0,1967.0 3425.0,1960.0 C 3433.0,1954.0 3451.0,1928.0 3465.0,1903.0 C 3484.0,1871.0 3504.0,1853.0 3534.0,1840.0 C 3558.0,1830.0 3587.0,1808.0 3599.0,1791.0 C 3611.0,1774.0 3641.0,1747.0 3664.0,1730.0 C 3712.0,1698.0 3740.0,1641.0 3760.0,1539.0 C 3770.0,1487.0 3773.0,1483.0 3795.0,1488.0 C 3826.0,1493.0 3870.0,1448.0 3870.0,1410.0 C 3870.0,1392.0 3880.0,1377.0 3900.0,1362.0 C 3936.0,1335.0 3963.0,1276.0 3955.0,1240.0 C 3951.0,1221.0 3956.0,1208.0 3975.0,1190.0 C 3989.0,1177.0 4000.0,1158.0 4000.0,1148.0 C 4000.0,1125.0 4001.0,1125.0 4059.0,1154.0 C 4112.0,1181.0 4140.0,1216.0 4140.0,1255.0 C 4140.0,1276.0 4145.0,1280.0 4171.0,1280.0 C 4204.0,1280.0 4204.0,1284.0 4174.0,1359.0 C 4157.0,1400.0 4157.0,1419.0 4171.0,1532.0 L 4183.0,1620.0 L 4230.0,1655.0 C 4297.0,1704.0 4353.0,1704.0 4417.0,1655.0 C 4479.0,1608.0 4532.0,1594.0 4590.0,1609.0 C 4615.0,1616.0 4642.0,1628.0 4651.0,1636.0 C 4661.0,1645.0 4689.0,1650.0 4731.0,1650.0 C 4797.0,1650.0 4866.0,1624.0 5598.0,1324.0 L 5710.0,1278.0 L 5710.0,1013.0 C 5710.0,867.0 5714.0,750.0 5719.0,752.0 C 5723.0,754.0 5991.0,1053.0 6314.0,1417.0 C 6637.0,1782.0 6904.0,2080.0 6907.0,2080.0 C 6911.0,2080.0 7258.0,2161.0 7679.0,2260.0 L 8445.0,2441.0 L 9186.0,2702.0 L 9927.0,2962.0 L 10084.0,3476.0 C 10170.0,3759.0 10238.0,3996.0 10234.0,4003.0 C 10214.0,4038.0 10026.0,4336.0 10018.0,4345.0 C 10012.0,4351.0 10004.0,4348.0 9995.0,4336.0 C 9982.0,4318.0 9961.0,4320.0 9388.0,4399.0 C 9062.0,4444.0 8783.0,4483.0 8769.0,4486.0 C 8749.0,4490.0 8685.0,4564.0 8502.0,4794.0 C 8292.0,5058.0 8261.0,5102.0 8258.0,5136.0 C 8255.0,5170.0 8250.0,5177.0 8216.0,5194.0 C 8184.0,5210.0 8174.0,5211.0 8157.0,5201.0 C 8144.0,5192.0 8134.0,5192.0 8128.0,5198.0 C 8111.0,5215.0 8129.0,5259.0 8171.0,5305.0 C 8204.0,5341.0 8209.0,5351.0 8196.0,5356.0 C 8188.0,5359.0 8169.0,5353.0 8154.0,5341.0 C 8127.0,5320.0 8127.0,5320.0 8113.0,5340.0 C 8101.0,5357.0 8092.0,5359.0 8038.0,5353.0 L 7976.0,5347.0 L 7938.0,5391.0 C 7912.0,5421.0 7892.0,5435.0 7873.0,5436.0 C 7852.0,5436.0 7844.0,5444.0 7834.0,5471.0 C 7827.0,5490.0 7821.0,5515.0 7821.0,5527.0 C 7820.0,5539.0 7807.0,5563.0 7790.0,5580.0 C 7757.0,5614.0 7752.0,5627.0 7742.0,5720.0 C 7735.0,5782.0 7733.0,5786.0 7697.0,5805.0 C 7664.0,5823.0 7560.0,5928.0 7560.0,5944.0 C 7560.0,5948.0 7574.0,5944.0 7590.0,5935.0 C 7607.0,5926.0 7620.0,5922.0 7620.0,5926.0 C 7620.0,5929.0 7607.0,5948.0 7590.0,5967.0 C 7574.0,5985.0 7560.0,6010.0 7560.0,6022.0 C 7560.0,6033.0 7544.0,6060.0 7525.0,6081.0 C 7499.0,6110.0 7490.0,6129.0 7490.0,6154.0 C 7490.0,6198.0 7501.0,6205.0 7533.0,6180.0 L 7558.0,6160.0 L 7574.0,6185.0 C 7583.0,6199.0 7590.0,6230.0 7590.0,6257.0 C 7590.0,6300.0 7586.0,6308.0 7546.0,6345.0 C 7499.0,6388.0 7484.0,6424.0 7494.0,6465.0 C 7500.0,6489.0 7501.0,6490.0 7526.0,6474.0 C 7567.0,6446.0 7564.0,6466.0 7520.0,6514.0 C 7486.0,6551.0 7471.0,6560.0 7444.0,6560.0 C 7426.0,6560.0 7405.0,6567.0 7398.0,6576.0 C 7391.0,6585.0 7364.0,6615.0 7339.0,6644.0 C 7314.0,6672.0 7287.0,6705.0 7281.0,6718.0 C 7272.0,6734.0 7263.0,6739.0 7252.0,6735.0 C 7208.0,6717.0 7204.0,6719.0 7180.0,6770.0 C 7167.0,6798.0 7141.0,6835.0 7123.0,6851.0 L 7089.0,6880.0 L 7119.0,6880.0 C 7156.0,6880.0 7163.0,6891.0 7144.0,6918.0 C 7132.0,6936.0 7119.0,6940.0 7075.0,6940.0 C 7031.0,6940.0 7019.0,6944.0 7010.0,6960.0 C 7002.0,6974.0 6989.0,6980.0 6964.0,6980.0 C 6936.0,6980.0 6928.0,6985.0 6920.0,7006.0 C 6907.0,7039.0 6907.0,7083.0 6920.0,7075.0 C 6926.0,7072.0 6930.0,7059.0 6931.0,7047.0 C 6931.0,7028.0 6933.0,7029.0 6942.0,7053.0 C 6954.0,7087.0 6939.0,7114.0 6879.0,7162.0 C 6823.0,7207.0 6784.0,7287.0 6775.0,7375.0 C 6764.0,7482.0 6769.0,7480.0 6555.0,7480.0 L 6372.0,7480.0 L 6346.0,7514.0 C 6332.0,7533.0 6320.0,7561.0 6320.0,7576.0 C 6320.0,7591.0 6304.0,7631.0 6285.0,7665.0 L 6251.0,7727.0 L 6032.0,7759.0 C 5863.0,7785.0 5808.0,7790.0 5792.0,7781.0 C 5781.0,7775.0 5754.0,7770.0 5733.0,7770.0 C 5686.0,7770.0 4931.0,7848.0 4922.0,7854.0 C 4918.0,7856.0 4630.0,8094.0 4282.0,8382.0 L 3650.0,8906.0 L 3487.0,8978.0 C 3342.0,9042.0 3295.0,9070.0 3089.0,9212.0 C 2960.0,9300.0 2846.0,9376.0 2835.0,9381.0 C 2824.0,9385.0 2691.0,9412.0 2540.0,9440.0 C 2389.0,9468.0 2260.0,9493.0 2254.0,9495.0 C 2248.0,9497.0 2223.0,9479.0 2199.0,9455.0" fill="pink"/>
	<path d="M 3520.0,1444.0 C 3520.0,1440.0 3528.0,1432.0 3537.0,1425.0 C 3551.0,1414.0 3552.0,1410.0 3541.0,1397.0 C 3531.0,1384.0 3531.0,1376.0 3542.0,1353.0 C 3549.0,1338.0 3563.0,1324.0 3573.0,1322.0 C 3587.0,1319.0 3590.0,1326.0 3590.0,1357.0 C 3590.0,1407.0 3570.0,1444.0 3542.0,1448.0 C 3530.0,1450.0 3520.0,1448.0 3520.0,1444.0" fill="pink"/>
	<path d="M 3487.0,1364.0 C 3478.0,1354.0 3504.0,1309.0 3538.0,1276.0 C 3565.0,1251.0 3572.0,1249.0 3597.0,1257.0 C 3630.0,1268.0 3650.0,1264.0 3650.0,1245.0 C 3650.0,1238.0 3657.0,1229.0 3666.0,1226.0 C 3711.0,1209.0 3713.0,1270.0 3669.0,1311.0 C 3632.0,1345.0 3620.0,1347.0 3620.0,1320.0 C 3620.0,1287.0 3565.0,1293.0 3543.0,1328.0 C 3518.0,1366.0 3501.0,1378.0 3487.0,1364.0" fill="pink"/>
</svg>

<?xml version="1.0" standalone="no"?>
<!DOCTYPE svg PUBLIC "-//W3C//DTD SVG 20010904//EN"
 "http://www.w3.org/TR/2001/REC-SVG-20010904/DTD/svg10.dtd">
<svg version="1.0" xmlns="http://www.w3.org/2000/svg"
 width="1024.000000pt" height="1024.000000pt" viewBox="0 0 1024.000000 1024.000000"
 preserveAspectRatio="xMidYMid meet">
<metadata>
Created by potrace 1.10, written by Peter Selinger 2001-2011
</metadata>
<g transform="translate(0.000000,1024.000000) scale(0.100000,-0.100000)"
fill="#000000" stroke="none">
<path d="M2199 9455 l-44 -44 -465 -136 c-256 -75 -475 -139 -488 -143 -22 -7
-7 -27 205 -268 125 -143 234 -267 241 -276 11 -14 3 -22 -66 -64 -79 -47 -79
-47 -117 -133 -21 -47 -42 -90 -47 -96 -5 -5 -88 -26 -184 -46 -96 -20 -176
-38 -178 -40 -2 -2 -32 -47 -67 -100 -45 -68 -92 -121 -160 -182 l-97 -87
-271 43 -272 44 -14 -27 c-18 -35 -54 -227 -64 -347 -9 -98 -48 -215 -95 -288
-17 -25 -16 -27 3 -58 l21 -32 0 26 c0 36 22 54 48 40 24 -13 99 -17 128 -7
45 16 199 -169 228 -273 14 -50 27 -72 76 -121 33 -34 63 -73 66 -88 12 -57
28 -84 76 -127 32 -29 53 -57 60 -81 5 -21 28 -59 51 -85 23 -27 69 -104 102
-171 59 -121 66 -129 141 -174 17 -10 18 -15 6 -48 -22 -59 8 -109 65 -111 16
0 89 -88 114 -137 10 -20 19 -48 19 -61 0 -14 17 -40 45 -67 44 -43 45 -46 45
-105 0 -79 -8 -105 -31 -105 -25 0 -24 -6 10 -49 48 -61 111 -167 111 -187 1
-46 57 -79 102 -60 11 5 23 1 35 -14 20 -24 124 -80 148 -80 8 0 32 -15 52
-33 21 -19 59 -48 85 -66 29 -19 50 -42 53 -56 3 -14 7 -36 10 -48 2 -13 29
-57 59 -98 41 -57 57 -89 69 -142 9 -43 25 -80 44 -102 63 -77 75 -95 61 -95
-8 0 -20 6 -27 13 -16 14 -16 16 33 -88 21 -44 44 -88 53 -97 8 -9 19 -34 23
-55 8 -31 6 -41 -11 -59 -21 -22 -49 -135 -49 -199 0 -24 8 -52 21 -70 11 -16
32 -55 45 -85 27 -58 27 -120 2 -175 -9 -20 -3 -38 43 -125 44 -84 60 -105 87
-117 27 -11 31 -17 22 -28 -8 -10 -6 -16 9 -27 11 -8 37 -46 58 -85 27 -49 55
-85 90 -112 46 -37 57 -41 106 -41 51 0 59 -3 103 -44 27 -24 76 -57 109 -74
50 -25 64 -38 82 -76 20 -40 27 -46 53 -46 16 0 30 -1 30 -2 0 -2 7 -21 14
-43 12 -34 12 -41 -1 -50 -12 -9 -6 -19 35 -57 40 -38 51 -57 66 -111 18 -67
36 -92 71 -99 20 -4 21 -8 8 -68 -3 -18 2 -31 16 -44 13 -12 21 -31 21 -52 0
-46 15 -81 38 -88 25 -8 68 -72 75 -112 3 -18 20 -53 37 -80 16 -26 30 -55 30
-65 0 -9 7 -22 15 -29 8 -6 26 -32 40 -57 19 -32 39 -50 69 -63 24 -10 53 -32
65 -49 12 -17 42 -44 65 -61 48 -32 76 -89 96 -191 10 -52 13 -56 35 -51 31 5
75 -40 75 -78 0 -18 10 -33 30 -48 36 -27 63 -86 55 -122 -4 -19 1 -32 20 -50
14 -13 25 -32 25 -42 0 -23 1 -23 59 6 53 27 81 62 81 101 0 21 5 25 31 25 33
0 33 4 3 79 -17 41 -17 60 -3 173 l12 88 47 35 c67 49 123 49 187 0 62 -47
115 -61 173 -46 25 7 52 19 61 27 10 9 38 14 80 14 66 0 135 -26 867 -326
l112 -46 0 -265 c0 -146 4 -263 9 -261 4 2 272 301 595 665 323 365 590 663
593 663 4 0 351 81 772 180 l766 181 741 261 741 260 157 514 c86 283 154 520
150 527 -20 35 -208 333 -216 342 -6 6 -14 3 -23 -9 -13 -18 -34 -16 -607 63
-326 45 -605 84 -619 87 -20 4 -84 78 -267 308 -210 264 -241 308 -244 342 -3
34 -8 41 -42 58 -32 16 -42 17 -59 7 -13 -9 -23 -9 -29 -3 -17 17 1 61 43 107
33 36 38 46 25 51 -8 3 -27 -3 -42 -15 -27 -21 -27 -21 -41 -1 -12 17 -21 19
-75 13 l-62 -6 -38 44 c-26 30 -46 44 -65 45 -21 0 -29 8 -39 35 -7 19 -13 44
-13 56 -1 12 -14 36 -31 53 -33 34 -38 47 -48 140 -7 62 -9 66 -45 85 -33 18
-137 123 -137 139 0 4 14 0 30 -9 17 -9 30 -13 30 -9 0 3 -13 22 -30 41 -16
18 -30 43 -30 55 0 11 -16 38 -35 59 -26 29 -35 48 -35 73 0 44 11 51 43 26
l25 -20 16 25 c9 14 16 45 16 72 0 43 -4 51 -44 88 -47 43 -62 79 -52 120 6
24 7 25 32 9 41 -28 38 -8 -6 40 -34 37 -49 46 -76 46 -18 0 -39 7 -46 16 -7
9 -34 39 -59 68 -25 28 -52 61 -58 74 -9 16 -18 21 -29 17 -44 -18 -48 -16
-72 35 -13 28 -39 65 -57 81 l-34 29 30 0 c37 0 44 11 25 38 -12 18 -25 22
-69 22 -44 0 -56 4 -65 20 -8 14 -21 20 -46 20 -28 0 -36 5 -44 26 -13 33 -13
77 0 69 6 -3 10 -16 11 -28 0 -19 2 -18 11 6 12 34 -3 61 -63 109 -56 45 -95
125 -104 213 -11 107 -6 105 -220 105 l-183 0 -26 34 c-14 19 -26 47 -26 62 0
15 -16 55 -35 89 l-34 62 -219 32 c-169 26 -224 31 -240 22 -11 -6 -38 -11
-59 -11 -47 0 -802 78 -811 84 -4 2 -292 240 -640 528 l-632 524 -163 72
c-145 64 -192 92 -398 234 -129 88 -243 164 -254 169 -11 4 -144 31 -295 59
-151 28 -280 53 -286 55 -6 2 -31 -16 -55 -40z"/>
<path d="M3520 1444 c0 -4 8 -12 17 -19 14 -11 15 -15 4 -28 -10 -13 -10 -21
1 -44 7 -15 21 -29 31 -31 14 -3 17 4 17 35 0 50 -20 87 -48 91 -12 2 -22 0
-22 -4z"/>
<path d="M3487 1364 c-9 -10 17 -55 51 -88 27 -25 34 -27 59 -19 33 11 53 7
53 -12 0 -7 7 -16 16 -19 45 -17 47 44 3 85 -37 34 -49 36 -49 9 0 -33 -55
-27 -77 8 -25 38 -42 50 -56 36z"/>
</g>
</svg>
